Lut/lut.CUBE
#Created by: Adobe Photoshop Export Color Lookup Plugin
TITLE "lut.psd"
#LUT size
LUT_3D_SIZE 8
#data domain
#LUT data points
DOMAIN_MIN 0.000000 0.000000 0.000000
DOMAIN_MAX 0.903226 0.903226 0.903226
0.000000 0.000000 0.000000
0.090820 0.022308 0.004303
0.221771 0.054749 0.014801
0.365540 0.090363 0.027893
0.516541 0.126495 0.037231
0.696442 0.169128 0.047668
0.892456 0.215240 0.058411
0.999298 0.245422 0.070007
0.047607 0.072510 0.041016
0.089935 0.078064 0.017120
0.246552 0.142578 0.039581
0.391327 0.181732 0.053680
0.543152 0.220764 0.063843
0.723816 0.266144 0.075043
0.920502 0.314575 0.086456
0.999298 0.357117 0.117188
0.113800 0.173767 0.085175
0.134216 0.175232 0.032257
0.217743 0.189148 0.046173
0.423553 0.295898 0.085907
0.575958 0.337006 0.096649
0.757233 0.384491 0.108459
0.930878 0.444336 0.136108
0.999298 0.491974 0.174133
0.185303 0.283356 0.128479
0.184418 0.279816 0.048401
0.264069 0.294739 0.064178
0.357086 0.310242 0.079681
0.606262 0.452179 0.127533
0.792175 0.508240 0.143402
0.930878 0.583344 0.194824
0.999298 0.631897 0.233246
0.259979 0.396942 0.171051
0.253845 0.390808 0.081482
0.314636 0.403564 0.078918
0.405457 0.418701 0.094055
0.502991 0.434967 0.110321
0.795044 0.604004 0.168640
0.930878 0.724182 0.254303
0.999298 0.773376 0.292969
0.348907 0.531372 0.219635
0.343018 0.525482 0.133484
0.376251 0.532349 0.096069
0.464172 0.546997 0.110718
0.559937 0.562958 0.126678
0.676147 0.582336 0.146057
0.885895 0.806793 0.279510
0.999298 0.938629 0.362762
0.411163 0.690826 0.293915
0.411163 0.682892 0.206512
0.426208 0.679413 0.127014
0.496429 0.698883 0.150330
0.574463 0.720520 0.176208
0.669891 0.746948 0.207886
0.775604 0.776245 0.242950
0.887451 0.911102 0.327118
0.414001 0.797028 0.358795
0.414001 0.789215 0.272461
0.416962 0.780762 0.171082
0.485199 0.799652 0.193695
0.562103 0.820953 0.219208
0.656830 0.847229 0.250641
0.761841 0.876312 0.285461
0.824005 0.893524 0.306061
0.035919 0.004425 0.093964
0.094330 0.007202 0.071930
0.208313 0.013763 0.049896
0.334198 0.021179 0.026550
0.483093 0.046173 0.019928
0.667358 0.081696 0.025146
0.866272 0.122528 0.032227
0.980865 0.147491 0.037781
0.057922 0.049835 0.093964
0.114380 0.094543 0.128143
0.222351 0.140533 0.154053
0.360718 0.181244 0.168182
0.513000 0.219513 0.176941
0.694000 0.264160 0.186798
0.891083 0.312103 0.197113
0.999969 0.340607 0.204498
0.122650 0.178589 0.170166
0.167175 0.202698 0.180542
0.213837 0.218353 0.176270
0.392487 0.293823 0.199951
0.545441 0.334473 0.209381
0.727112 0.381439 0.219910
0.924805 0.431488 0.230835
0.999969 0.474335 0.260986
0.191101 0.289124 0.212982
0.240601 0.313232 0.223022
0.264404 0.321838 0.186890
0.356262 0.339111 0.205139
0.579620 0.455566 0.243561
0.761780 0.504181 0.254578
0.934479 0.565857 0.282776
0.999969 0.613403 0.319702
0.265625 0.402588 0.253876
0.316223 0.427277 0.264771
0.322876 0.427338 0.194946
0.404633 0.447449 0.218231
0.503845 0.463989 0.234772
0.797699 0.628906 0.289429
0.934479 0.705933 0.341919
0.999969 0.754272 0.379181
0.354462 0.536926 0.300934
0.405457 0.561951 0.312256
0.398956 0.555450 0.217102
0.463196 0.575653 0.233673
0.560822 0.591919 0.249969
0.678650 0.611542 0.269592
0.911621 0.828278 0.388672
0.999969 0.918549 0.448578
0.411163 0.698364 0.377380
0.472076 0.719025 0.381470
0.472076 0.710205 0.283966
0.516998 0.718933 0.257751
0.596802 0.741028 0.284241
0.693665 0.767883 0.316376
0.800446 0.797455 0.351776
0.913330 0.927277 0.433655
0.414001 0.804535 0.441742
0.474152 0.819641 0.443329
0.474152 0.810883 0.346619
0.505402 0.814240 0.298340
0.584259 0.836090 0.324493
0.680359 0.862701 0.356384
0.786530 0.892120 0.391602
0.849274 0.909515 0.412384
0.083435 0.009674 0.188049
0.175385 0.014740 0.188049
0.225647 0.016632 0.143982
0.352112 0.024109 0.123657
0.485504 0.033478 0.103333
0.645691 0.046082 0.079651
0.821564 0.061401 0.054108
0.923218 0.068451 0.039001
0.061340 0.035309 0.188049
0.184326 0.096558 0.211304
0.240753 0.109741 0.203644
0.364014 0.122040 0.187378
0.506653 0.129364 0.162231
0.677032 0.149231 0.146698
0.863922 0.197632 0.162231
0.969696 0.225494 0.170898
0.128387 0.120422 0.190735
0.184509 0.169861 0.228546
0.258881 0.231873 0.277863
0.372711 0.284637 0.309143
0.517151 0.328064 0.323792
0.695404 0.375946 0.336243
0.893280 0.425568 0.346649
0.997894 0.453979 0.353027
0.211273 0.290131 0.296509
0.252899 0.317322 0.312469
0.311707 0.350861 0.333130
0.359528 0.370117 0.335663
0.547363 0.449371 0.360046
0.729797 0.497711 0.370636
0.928162 0.549103 0.381531
0.999969 0.591248 0.409973
0.271881 0.408844 0.345367
0.322540 0.433594 0.356934
0.387695 0.465179 0.374023
0.415192 0.475555 0.343323
0.508667 0.495331 0.365173
0.764801 0.621704 0.405640
0.938599 0.684143 0.433380
0.999969 0.731140 0.469055
0.360626 0.543091 0.391174
0.411682 0.568176 0.403198
0.477264 0.600037 0.420746
0.483398 0.599915 0.351776
0.565369 0.623260 0.379944
0.684906 0.643188 0.399872
0.938599 0.846802 0.502075
0.999969 0.894592 0.538086
0.411163 0.706848 0.470795
0.472076 0.727539 0.475342
0.552490 0.754181 0.483887
0.552490 0.745605 0.389221
0.623047 0.763977 0.399353
0.721405 0.791229 0.431946
0.829437 0.821167 0.467804
0.943451 0.945007 0.547241
0.414001 0.812927 0.534515
0.474152 0.828094 0.536652
0.554779 0.848572 0.542664
0.554779 0.840057 0.448669
0.610229 0.852661 0.436676
0.707855 0.879730 0.469086
0.815277 0.909485 0.504730
0.878754 0.927094 0.525787
0.131897 0.015076 0.277191
0.228271 0.020386 0.277191
0.350403 0.027130 0.277191
0.364258 0.028412 0.214966
0.502106 0.036224 0.193085
0.662567 0.048859 0.171112
0.838867 0.064240 0.147858
0.940826 0.071381 0.134369
0.062836 0.019348 0.277191
0.254425 0.098694 0.289948
0.350311 0.114655 0.305939
0.376190 0.126221 0.277374
0.513123 0.135834 0.257080
0.683014 0.144501 0.229126
0.868134 0.153778 0.199371
0.972046 0.158997 0.182281
0.133057 0.101807 0.277191
0.222321 0.139221 0.295013
0.329193 0.235657 0.358246
0.392334 0.249786 0.352417
0.520508 0.263458 0.338531
0.690643 0.272644 0.311188
0.876770 0.300873 0.302185
0.975128 0.330353 0.312134
0.195557 0.199341 0.287384
0.253967 0.251373 0.326691
0.329102 0.315338 0.376587
0.410400 0.382599 0.430145
0.529175 0.437592 0.462402
0.701263 0.489563 0.479584
0.897827 0.541321 0.491486
0.996063 0.570251 0.498199
0.296021 0.401550 0.415527
0.342255 0.434418 0.437103
0.398529 0.469513 0.460663
0.464935 0.505524 0.484802
0.515411 0.525726 0.489716
0.734039 0.613434 0.515656
0.933014 0.665955 0.526672
0.999969 0.707764 0.554321
0.366608 0.549072 0.479004
0.417694 0.574188 0.491394
0.483307 0.606110 0.509521
0.554749 0.640594 0.530884
0.580811 0.650299 0.498352
0.693054 0.673920 0.524414
0.942719 0.823853 0.588531
0.999969 0.870392 0.623016
0.411163 0.715088 0.561829
0.472076 0.735809 0.566772
0.552490 0.762543 0.575806
0.640045 0.791229 0.587097
0.649750 0.786621 0.509918
0.749542 0.814270 0.542999
0.858704 0.844513 0.579224
0.973694 0.962341 0.656219
0.414001 0.821136 0.625061
0.474152 0.836334 0.627625
0.554779 0.856842 0.634125
0.642487 0.879303 0.642883
0.642487 0.871124 0.552612
0.735809 0.896423 0.577301
0.844421 0.926514 0.613312
0.908478 0.944275 0.634552
0.182159 0.021973 0.361877
0.282135 0.027496 0.361877
0.406952 0.034393 0.361877
0.532593 0.041229 0.358368
0.512848 0.040588 0.280182
0.678253 0.051453 0.255951
0.854736 0.066864 0.233673
0.956757 0.074005 0.220764
0.094727 0.017151 0.361877
0.322876 0.101227 0.365112
0.421112 0.117584 0.381470
0.525665 0.135010 0.398895
0.519226 0.141937 0.346283
0.689178 0.150635 0.319153
0.874329 0.159973 0.290375
0.978302 0.165253 0.273895
0.135101 0.085541 0.361877
0.248169 0.113892 0.364899
0.399414 0.239014 0.433807
0.502716 0.256226 0.451019
0.530701 0.267853 0.424103
0.696716 0.278717 0.400146
0.882111 0.288635 0.371826
0.979523 0.294067 0.355835
0.211487 0.175262 0.361877
0.289398 0.220154 0.389343
0.364624 0.283752 0.439148
0.479919 0.387299 0.507355
0.546600 0.401855 0.502899
0.704254 0.416443 0.484985
0.889893 0.426758 0.457031
0.981018 0.441650 0.451324
0.262268 0.282013 0.381775
0.322021 0.335724 0.421967
0.397766 0.401215 0.472321
0.479553 0.469788 0.526245
0.564056 0.539368 0.581696
0.713135 0.601654 0.614655
0.903900 0.657013 0.630951
0.995819 0.686432 0.638031
0.378693 0.521210 0.528412
0.437531 0.574585 0.566895
0.494415 0.609894 0.591187
0.560608 0.646454 0.616455
0.634766 0.682159 0.640076
0.702301 0.703583 0.643219
0.944824 0.802032 0.671875
0.999969 0.846527 0.703583
0.411163 0.723022 0.649445
0.472076 0.743774 0.654724
0.552490 0.770538 0.664154
0.640045 0.799255 0.675842
0.730957 0.828827 0.688843
0.765503 0.841309 0.657043
0.887756 0.867279 0.685791
0.999969 0.978180 0.759186
0.414001 0.829041 0.712280
0.474152 0.844269 0.715240
0.554779 0.864807 0.722107
0.642487 0.887299 0.731201
0.733551 0.910767 0.741821
0.763611 0.912659 0.680756
0.873352 0.943085 0.717194
0.937927 0.960968 0.738617
0.241974 0.031433 0.455627
0.345337 0.037109 0.455627
0.472809 0.044159 0.455627
0.607147 0.051575 0.455627
0.705872 0.059387 0.443146
0.689331 0.056580 0.352783
0.872009 0.069702 0.327240
0.974182 0.076843 0.314972
0.148560 0.026276 0.455627
0.385406 0.110321 0.458557
0.501038 0.121277 0.465424
0.607239 0.138977 0.483124
0.716034 0.157104 0.501251
0.695923 0.157410 0.418091
0.881165 0.166779 0.390015
0.985138 0.172089 0.373962
0.139343 0.067810 0.455627
0.269073 0.103882 0.458557
0.478821 0.243164 0.517853
0.583984 0.260681 0.535370
0.691803 0.278656 0.553345
0.703430 0.285431 0.498322
0.888855 0.295380 0.470581
0.986298 0.300842 0.455017
0.213684 0.155090 0.455627
0.328552 0.185211 0.458588
0.403931 0.248535 0.508423
0.560822 0.392059 0.591766
0.667664 0.409851 0.609558
0.710907 0.423096 0.582428
0.896576 0.433441 0.555054
0.987396 0.438904 0.539886
0.293427 0.248749 0.455627
0.360748 0.299225 0.490784
0.436646 0.364410 0.541138
0.518555 0.432770 0.595062
0.644165 0.545349 0.667603
0.724274 0.562500 0.663666
0.904114 0.575470 0.640503
0.988403 0.580963 0.625824
0.338959 0.380585 0.488678
0.399261 0.435608 0.529297
0.475616 0.502441 0.580078
0.557953 0.572327 0.634460
0.642883 0.643066 0.690247
0.743225 0.725586 0.755920
0.914215 0.789917 0.785828
0.997040 0.820435 0.794556
0.411163 0.659912 0.677765
0.472076 0.716187 0.717682
0.552490 0.779449 0.762604
0.640045 0.808197 0.774689
0.730957 0.837799 0.788086
0.826782 0.877350 0.812714
0.908569 0.897766 0.812592
0.999969 0.987640 0.863708
0.414001 0.837463 0.805511
0.474152 0.853119 0.813019
0.554779 0.873718 0.820221
0.642487 0.896240 0.829742
0.733551 0.919708 0.840637
0.841583 0.947662 0.854462
0.906555 0.961731 0.832703
0.971710 0.979797 0.854309
0.307281 0.043091 0.551636
0.413666 0.048950 0.551636
0.543976 0.056152 0.551636
0.680359 0.063660 0.551636
0.819244 0.071350 0.551636
0.888062 0.082581 0.527435
0.881256 0.075775 0.427795
0.989960 0.080444 0.411530
0.209229 0.037689 0.551636
0.451324 0.119965 0.554474
0.580078 0.127075 0.554474
0.692383 0.143433 0.569672
0.802521 0.161774 0.588043
0.895508 0.180237 0.590149
0.888062 0.173706 0.491425
0.992096 0.179047 0.475739
0.146484 0.050415 0.551636
0.331116 0.113342 0.554474
0.561707 0.247772 0.604218
0.668671 0.265594 0.622040
0.777954 0.283844 0.640289
0.906372 0.305237 0.661682
0.895752 0.302246 0.571320
0.993195 0.307739 0.556061
0.218201 0.134644 0.551636
0.331024 0.164124 0.554474
0.460175 0.230865 0.587311
0.645111 0.397339 0.678497
0.753540 0.415405 0.696564
0.881073 0.436676 0.717804
0.903412 0.440277 0.655151
0.994232 0.445770 0.640259
0.296417 0.226501 0.551636
0.400452 0.261719 0.561279
0.476563 0.326630 0.611664
0.558472 0.394592 0.665497
0.729614 0.551086 0.754608
0.856354 0.572205 0.775726
0.910889 0.582275 0.740082
0.995209 0.587769 0.725647
0.379211 0.342102 0.559387
0.438507 0.396484 0.599304
0.515106 0.463165 0.650208
0.597504 0.532806 0.704529
0.682465 0.603302 0.760254
0.828369 0.732330 0.844116
0.919403 0.749695 0.839020
0.996307 0.755096 0.825012
0.411163 0.491913 0.606812
0.472076 0.546997 0.646240
0.552490 0.613861 0.695313
0.639923 0.683044 0.746918
0.725250 0.754852 0.803040
0.826019 0.838440 0.869049
0.935120 0.927948 0.940308
0.999695 0.962891 0.956512
0.414001 0.667999 0.733948
0.474152 0.723969 0.770508
0.554779 0.791931 0.816528
0.642487 0.862091 0.864990
0.733551 0.926147 0.911591
0.841583 0.956085 0.947418
0.959045 0.987396 0.972839
0.999969 0.997345 0.970917
0.342560 0.047791 0.600006
0.450653 0.053741 0.600006
0.582245 0.061005 0.600006
0.719727 0.068573 0.600006
0.859406 0.076294 0.600006
0.997009 0.095490 0.617371
0.997711 0.088226 0.525452
0.993866 0.084351 0.468842
0.242035 0.042236 0.600006
0.487854 0.125244 0.600006
0.618195 0.132416 0.600006
0.736847 0.146790 0.611694
0.847778 0.165283 0.630188
0.977722 0.186920 0.651825
0.999847 0.186798 0.589172
0.996002 0.182953 0.532776
0.150238 0.041016 0.600006
0.365509 0.118469 0.600006
0.603424 0.251556 0.643494
0.711365 0.269531 0.661499
0.821411 0.287903 0.679840
0.950562 0.309418 0.701355
0.999969 0.315826 0.669678
0.997070 0.311615 0.612885
0.220032 0.122986 0.600006
0.330933 0.152008 0.600006
0.500671 0.234436 0.626373
0.685974 0.401672 0.715271
0.795166 0.419861 0.733490
0.923553 0.441254 0.754883
0.999969 0.454193 0.754028
0.998108 0.449615 0.696777
0.297272 0.213715 0.600006
0.409821 0.244659 0.600006
0.493408 0.306122 0.641815
0.581024 0.384186 0.697784
0.769653 0.556000 0.788971
0.897156 0.577240 0.810211
0.999969 0.595612 0.829193
0.999054 0.591614 0.781860
0.391296 0.324158 0.600006
0.456573 0.375031 0.631866
0.531708 0.441772 0.680115
0.612610 0.511566 0.731781
0.696106 0.582245 0.784912
0.867279 0.737732 0.875671
0.999969 0.760590 0.898865
0.999969 0.758972 0.881042
0.414001 0.476532 0.653107
0.474152 0.530945 0.688995
0.554779 0.597198 0.734283
0.642487 0.665894 0.782135
0.733551 0.735138 0.830902
0.837738 0.816925 0.890533
0.972168 0.934113 0.969269
0.999969 0.938934 0.974182
0.414001 0.571411 0.693176
0.474152 0.626587 0.729401
0.554779 0.693726 0.775055
0.642487 0.763214 0.823242
0.733551 0.833130 0.872314
0.841583 0.914246 0.929749
0.959045 0.988617 0.986389
0.999969 0.999969 0.999969
