Lut/lut.CUBE
#Created by: Adobe Photoshop Export Color Lookup Plugin
TITLE "lut.psd"
#LUT size
LUT_3D_SIZE 5
#data domain
#LUT data points
DOMAIN_MIN 0.000000 0.000000 0.000000
DOMAIN_MAX 0.903226 0.903226 0.903226
0.000000 0.000000 0.000000
0.187408 0.046204 0.011566
0.439117 0.107971 0.032440
0.745300 0.180634 0.050354
0.999298 0.245422 0.070007
0.096497 0.147308 0.074188
0.184265 0.159943 0.038055
0.489471 0.286377 0.082794
0.797852 0.366821 0.102905
0.999298 0.457397 0.159546
0.221649 0.338745 0.149475
0.267242 0.344269 0.067780
0.428223 0.371094 0.094604
0.843445 0.589111 0.174194
0.999298 0.701324 0.262543
0.373108 0.567810 0.232544
0.375458 0.563416 0.096436
0.526428 0.589417 0.122833
0.713745 0.625854 0.161865
0.972412 0.934662 0.355316
0.414001 0.797028 0.358795
0.414001 0.782013 0.192932
0.522278 0.809937 0.205994
0.682922 0.854431 0.259277
0.824005 0.893524 0.306061
0.071503 0.008362 0.164917
0.191284 0.014160 0.126251
0.412689 0.027893 0.090179
0.684814 0.048950 0.048523
0.934906 0.083221 0.033447
0.111389 0.101501 0.166077
0.221680 0.195740 0.239868
0.440033 0.279205 0.281189
0.744110 0.359894 0.301819
0.998688 0.425018 0.315826
0.232086 0.349182 0.302246
0.330231 0.396881 0.325531
0.431122 0.423492 0.317963
0.804352 0.573364 0.362061
0.999969 0.665466 0.416718
0.383270 0.577942 0.381104
0.482666 0.626587 0.405609
0.528839 0.641632 0.343445
0.730743 0.675293 0.377075
0.999969 0.944763 0.534698
0.414001 0.810852 0.511322
0.533691 0.841095 0.517517
0.562195 0.837036 0.395203
0.727570 0.882843 0.450043
0.871277 0.922668 0.497711
0.156464 0.018372 0.319305
0.346252 0.028870 0.319305
0.436707 0.034271 0.247345
0.714203 0.053802 0.207733
0.948822 0.072662 0.177612
0.115662 0.072388 0.319305
0.344421 0.201508 0.377960
0.456024 0.226288 0.368530
0.738007 0.244751 0.327271
0.976105 0.257477 0.289276
0.228363 0.239594 0.334015
0.343323 0.340607 0.410919
0.485687 0.459045 0.504730
0.753845 0.558624 0.550964
0.995758 0.627350 0.567474
0.393646 0.588318 0.532898
0.493164 0.637054 0.558838
0.618103 0.697418 0.596832
0.745636 0.728729 0.592743
0.999969 0.902252 0.681488
0.414001 0.825073 0.668335
0.533691 0.855408 0.675751
0.686890 0.894684 0.691650
0.776672 0.911987 0.637665
0.922974 0.952545 0.686188
0.258179 0.034149 0.480072
0.457672 0.045166 0.480072
0.692810 0.058105 0.480072
0.737213 0.061157 0.371796
0.978668 0.077606 0.339325
0.124176 0.043701 0.480072
0.479553 0.208160 0.521820
0.664276 0.238953 0.552612
0.749542 0.256317 0.496307
0.987793 0.269165 0.460083
0.253113 0.195099 0.480072
0.410370 0.279053 0.529358
0.623108 0.468323 0.650909
0.762543 0.496735 0.642670
0.989624 0.510071 0.607544
0.359467 0.407410 0.516968
0.476288 0.512573 0.595276
0.620178 0.634796 0.690247
0.791321 0.776031 0.802338
0.997589 0.856262 0.835663
0.414001 0.796844 0.788391
0.533691 0.870636 0.843903
0.686890 0.910034 0.860809
0.870880 0.957611 0.884369
0.980713 0.984772 0.884613
0.342560 0.047791 0.600006
0.548401 0.059143 0.600006
0.788177 0.072357 0.600006
0.999298 0.094574 0.600891
0.993866 0.084351 0.468842
0.164856 0.037994 0.600006
0.583130 0.215149 0.626068
0.771667 0.246582 0.657471
0.990387 0.284149 0.695618
0.996796 0.278168 0.592255
0.257416 0.166931 0.600006
0.457581 0.231384 0.613007
0.726959 0.477081 0.751312
0.945068 0.513428 0.787659
0.998566 0.519012 0.738495
0.409576 0.357208 0.604919
0.522552 0.461548 0.677979
0.663971 0.583710 0.768311
0.893585 0.786835 0.899078
0.999969 0.804260 0.907806
0.414001 0.571411 0.693176
0.533691 0.676575 0.763275
0.686890 0.797546 0.847260
0.870880 0.935974 0.945221
0.999969 0.999969 0.999969
