Lut/lut.3DL
#Created by: Adobe Photoshop Export Color Lookup Plugin
#Description: lut.psd
0 33 66 99 132 165 198 231 264 297 330 363 396 429 462 495 528 561 594 627 660 693 726 759 792 825 858 891 924 957 990 1023
0 0 0
21 3 91
46 7 188
86 12 286
147 18 385
197 23 482
245 29 579
293 34 675
342 40 770
391 45 864
441 50 956
490 56 1046
540 62 1135
590 68 1222
641 75 1308
691 82 1393
746 90 1482
803 99 1574
863 108 1669
926 118 1767
991 129 1866
1057 140 1966
1124 152 2065
1191 164 2163
1258 176 2259
1320 185 2351
1379 193 2439
1403 196 2457
1403 196 2457
1403 196 2457
1403 196 2457
1403 196 2457
20 30 19
28 15 91
41 12 188
56 11 286
80 14 385
114 19 482
169 25 579
226 30 675
273 36 770
321 41 864
369 46 956
417 52 1046
466 58 1135
515 64 1222
565 71 1308
614 78 1393
668 86 1482
725 94 1574
784 104 1669
846 113 1767
909 124 1866
975 135 1966
1041 147 2065
1107 159 2163
1173 172 2259
1234 180 2351
1293 188 2439
1316 191 2457
1316 191 2457
1316 191 2457
1316 191 2457
1316 191 2457
80 121 79
104 119 151
101 82 188
106 69 286
101 45 385
105 29 482
116 24 579
137 26 675
175 30 770
235 36 864
286 42 956
332 47 1046
380 53 1135
427 59 1222
475 66 1308
523 73 1393
575 81 1482
630 89 1574
688 98 1669
749 108 1767
811 119 1866
875 130 1966
940 141 2065
1006 153 2163
1070 166 2259
1131 174 2351
1188 182 2439
1211 185 2457
1211 185 2457
1211 185 2457
1211 185 2457
1211 185 2457
135 205 123
145 208 202
187 201 274
167 141 286
171 127 385
176 113 482
180 99 579
185 86 675
179 59 770
180 43 864
191 37 956
228 41 1046
287 48 1135
338 54 1222
384 61 1308
431 68 1393
481 75 1482
534 84 1574
590 93 1669
649 103 1767
710 113 1866
773 124 1966
836 136 2065
901 148 2163
964 160 2259
1023 168 2351
1080 176 2439
1102 179 2457
1102 179 2457
1102 179 2457
1102 179 2457
1102 179 2457
195 297 168
200 302 248
230 300 327
273 292 400
237 204 385
241 189 482
244 174 579
248 159 675
251 145 770
254 130 864
258 116 956
261 102 1046
257 79 1135
256 60 1222
276 55 1308
329 62 1393
388 70 1482
439 79 1574
493 87 1669
550 97 1767
608 108 1866
669 118 1966
731 130 2065
793 142 2163
857 154 2259
914 162 2351
969 170 2439
991 173 2457
991 173 2457
991 173 2457
991 173 2457
991 173 2457
259 395 213
264 400 291
275 405 381
318 397 454
346 370 506
310 271 482
313 255 579
315 239 675
318 223 770
320 207 864
323 192 956
325 177 1046
328 162 1135
332 148 1222
336 134 1308
340 121 1393
343 104 1482
340 78 1574
391 82 1669
455 92 1767
512 102 1866
570 113 1966
630 124 2065
690 136 2163
752 148 2259
807 157 2351
861 164 2439
882 167 2457
882 167 2457
882 167 2457
882 167 2457
882 167 2457
326 497 258
331 503 335
338 509 427
364 508 510
407 500 583
417 447 609
386 341 579
388 324 675
390 307 770
392 291 864
393 275 956
395 259 1046
397 243 1135
399 228 1222
402 213 1308
406 198 1393
411 183 1482
416 167 1574
421 151 1669
428 135 1767
434 117 1866
471 107 1966
533 119 2065
591 131 2163
649 143 2259
704 151 2351
755 158 2439
776 161 2457
776 161 2457
776 161 2457
776 161 2457
776 161 2457
395 603 304
400 608 380
407 615 471
413 621 565
454 614 640
497 607 713
487 525 711
456 416 680
465 396 770
466 378 864
467 361 956
468 345 1046
469 328 1135
471 312 1222
474 296 1308
477 281 1393
480 265 1482
484 248 1574
489 231 1669
495 213 1767
501 196 1866
509 179 1966
516 162 2065
525 145 2163
555 138 2259
607 146 2351
656 153 2439
675 156 2457
675 156 2457
675 156 2457
675 156 2457
675 156 2457
466 712 349
471 717 424
477 723 514
484 729 608
502 731 697
545 724 769
588 717 842
557 605 813
526 493 781
543 469 864
544 451 956
544 434 1046
545 417 1135
546 400 1222
548 384 1308
550 367 1393
553 350 1482
557 333 1574
561 315 1669
565 296 1767
571 278 1866
577 259 1966
584 241 2065
591 223 2163
600 206 2259
608 190 2351
617 175 2439
615 168 2457
615 168 2457
615 168 2457
615 168 2457
615 168 2457
538 823 394
543 828 468
550 834 558
556 840 651
562 847 747
593 844 827
636 837 900
660 803 947
628 687 914
595 572 882
623 544 956
623 526 1046
623 508 1135
623 491 1222
625 474 1308
627 458 1393
629 440 1482
632 422 1574
635 403 1669
639 383 1767
644 364 1866
650 345 1966
656 326 2065
663 307 2163
670 288 2259
677 271 2351
685 255 2439
682 246 2457
682 246 2457
682 246 2457
682 246 2457
682 246 2457
611 934 438
616 939 512
622 945 601
629 952 693
635 958 789
642 965 884
684 957 957
727 950 1029
730 886 1047
697 768 1013
664 653 981
701 620 1047
702 602 1135
702 584 1222
703 566 1308
705 549 1393
707 531 1482
709 512 1574
712 492 1669
715 473 1767
720 453 1866
724 432 1966
729 412 2065
736 393 2163
742 373 2259
749 355 2351
756 338 2439
752 329 2457
752 329 2457
752 329 2457
752 329 2457
752 329 2457
685 1047 482
690 1052 555
696 1058 643
702 1064 736
709 1071 831
715 1077 926
733 1080 1014
775 1072 1086
817 1065 1157
799 969 1146
766 850 1112
733 734 1079
768 702 1144
783 678 1222
783 660 1308
784 642 1393
786 624 1482
788 604 1574
790 584 1669
793 564 1767
797 543 1866
801 522 1966
805 502 2065
811 481 2163
817 462 2259
823 442 2351
829 425 2439
826 415 2457
826 415 2457
826 415 2457
826 415 2457
826 415 2457
759 1160 526
764 1165 598
770 1171 686
776 1177 778
783 1184 872
789 1190 967
796 1197 1062
824 1195 1143
865 1188 1214
902 1173 1278
867 1052 1243
834 933 1210
801 816 1177
836 784 1240
864 755 1308
865 737 1393
866 718 1482
867 698 1574
870 678 1669
872 657 1767
875 635 1866
879 614 1966
883 593 2065
888 572 2163
894 551 2259
899 532 2351
905 513 2439
901 504 2457
901 504 2457
901 504 2457
901 504 2457
901 504 2457
833 1273 569
838 1278 641
844 1284 728
850 1291 819
857 1297 913
863 1303 1008
869 1310 1103
876 1316 1197
914 1311 1271
955 1304 1341
969 1255 1373
934 1133 1339
901 1014 1305
868 898 1273
903 866 1335
937 835 1398
946 812 1482
947 792 1574
949 771 1669
951 750 1767
954 728 1866
957 706 1966
961 684 2065
965 662 2163
970 642 2259
976 621 2351
981 603 2439
977 593 2457
977 593 2457
977 593 2457
977 593 2457
977 593 2457
908 1387 612
913 1392 683
918 1398 770
925 1404 861
931 1411 955
938 1417 1049
944 1424 1143
950 1430 1238
962 1434 1328
1004 1427 1398
1044 1420 1467
1036 1338 1468
1001 1216 1434
968 1098 1401
935 981 1368
970 949 1430
1006 915 1496
1028 887 1574
1029 865 1669
1031 844 1767
1033 821 1866
1036 799 1966
1040 777 2065
1044 755 2163
1049 734 2259
1054 713 2351
1058 694 2439
1054 684 2457
1054 684 2457
1054 684 2457
1054 684 2457
1054 684 2457
983 1502 655
988 1507 726
994 1513 812
1000 1519 903
1007 1526 996
1013 1532 1090
1020 1538 1184
1026 1545 1278
1032 1551 1371
1053 1552 1455
1093 1545 1524
1133 1538 1592
1103 1422 1563
1069 1301 1529
1036 1182 1496
1003 1065 1463
1039 1031 1528
1077 996 1596
1111 961 1669
1112 939 1767
1115 916 1866
1117 894 1966
1120 871 2065
1124 849 2163
1128 827 2259
1133 806 2351
1137 786 2439
1133 776 2457
1133 776 2457
1133 776 2457
1133 776 2457
1133 776 2457
1065 1625 700
1069 1630 771
1075 1636 857
1081 1642 946
1088 1649 1040
1094 1655 1133
1101 1661 1227
1107 1668 1321
1113 1674 1414
1120 1681 1507
1146 1679 1585
1186 1672 1653
1212 1644 1702
1177 1521 1667
1143 1400 1633
1109 1280 1599
1074 1155 1563
1112 1119 1631
1151 1083 1701
1191 1044 1773
1202 1019 1866
1204 996 1966
1206 972 2065
1210 950 2163
1214 928 2259
1218 906 2351
1222 886 2439
1217 875 2457
1217 875 2457
1217 875 2457
1217 875 2457
1217 875 2457
1150 1754 748
1154 1759 818
1160 1765 903
1166 1771 992
1173 1777 1085
1179 1784 1178
1186 1790 1272
1192 1797 1366
1198 1803 1459
1205 1809 1551
1211 1816 1642
1241 1812 1716
1280 1806 1783
1291 1754 1810
1256 1631 1775
1222 1509 1741
1185 1380 1705
1148 1249 1668
1187 1212 1737
1228 1174 1809
1269 1135 1882
1295 1102 1966
1297 1079 2065
1300 1056 2163
1304 1033 2259
1308 1012 2351
1312 991 2439
1307 980 2457
1307 980 2457
1307 980 2457
1307 980 2457
1307 980 2457
1239 1890 797
1244 1895 866
1250 1900 951
1256 1907 1040
1262 1913 1133
1268 1919 1225
1275 1926 1319
1281 1932 1413
1288 1938 1505
1294 1945 1597
1300 1951 1688
1306 1957 1778
1338 1953 1849
1377 1946 1915
1375 1876 1925
1340 1751 1890
1303 1620 1853
1265 1487 1815
1226 1348 1776
1266 1310 1848
1307 1271 1920
1349 1232 1994
1390 1193 2067
1396 1168 2163
1399 1146 2259
1403 1123 2351
1406 1102 2439
1402 1092 2457
1402 1092 2457
1402 1092 2457
1402 1092 2457
1402 1092 2457
1333 2031 848
1337 2036 917
1343 2042 1001
1349 2048 1090
1356 2054 1182
1362 2060 1274
1368 2067 1368
1375 2073 1461
1381 2079 1553
1387 2086 1645
1393 2092 1736
1400 2098 1825
1406 2104 1914
1437 2100 1983
1475 2094 2048
1463 2006 2044
1425 1874 2007
1387 1737 1968
1347 1596 1928
1306 1452 1888
1347 1413 1960
1389 1373 2034
1430 1334 2107
1472 1295 2179
1499 1262 2259
1502 1240 2351
1506 1219 2439
1500 1207 2457
1500 1207 2457
1500 1207 2457
1500 1207 2457
1500 1207 2457
1429 2176 899
1434 2181 968
1439 2186 1052
1445 2192 1140
1452 2199 1232
1458 2205 1324
1464 2211 1417
1471 2218 1510
1477 2224 1602
1483 2230 1694
1489 2236 1784
1495 2242 1873
1501 2248 1962
1507 2254 2048
1536 2251 2118
1574 2245 2182
1551 2134 2164
1512 1996 2125
1471 1852 2084
1430 1706 2043
1388 1558 2001
1430 1518 2075
1471 1478 2147
1512 1440 2220
1553 1401 2291
1592 1364 2359
1607 1338 2439
1602 1327 2457
1602 1327 2457
1602 1327 2457
1602 1327 2457
1602 1327 2457
1528 2325 952
1533 2330 1021
1538 2336 1104
1544 2342 1192
1550 2348 1284
1557 2354 1375
1563 2360 1468
1569 2367 1561
1576 2373 1652
1582 2379 1744
1588 2385 1834
1594 2392 1923
1600 2398 2011
1606 2403 2097
1612 2409 2182
1638 2407 2254
1669 2404 2327
1640 2265 2285
1599 2118 2244
1557 1969 2202
1515 1820 2160
1472 1668 2117
1513 1628 2190
1554 1589 2262
1595 1550 2333
1634 1513 2401
1671 1477 2466
1677 1463 2477
1677 1463 2477
1677 1463 2477
1677 1463 2477
1677 1463 2477
1627 2475 1005
1632 2480 1073
1638 2485 1156
1644 2491 1244
1650 2497 1335
1656 2504 1426
1663 2510 1519
1669 2516 1611
1673 2523 1704
1673 2532 1799
1673 2540 1893
1673 2549 1986
1673 2557 2078
1673 2565 2168
1673 2573 2256
1673 2581 2345
1673 2590 2438
1673 2573 2509
1673 2409 2440
1673 2242 2369
1642 2085 2319
1599 1931 2275
1556 1779 2232
1597 1739 2304
1637 1700 2375
1676 1663 2443
1694 1634 2521
1695 1621 2535
1695 1621 2535
1695 1621 2535
1695 1621 2535
1695 1621 2535
1678 2644 1090
1678 2650 1160
1678 2658 1247
1678 2666 1338
1678 2675 1433
1678 2683 1528
1678 2692 1624
1678 2701 1721
1678 2710 1816
1678 2718 1912
1678 2727 2006
1678 2735 2098
1678 2743 2190
1678 2751 2279
1678 2760 2368
1678 2767 2456
1678 2776 2549
1678 2785 2645
1678 2729 2682
1678 2559 2610
1678 2387 2538
1678 2213 2464
1678 2042 2392
1639 1889 2347
1680 1850 2418
1689 1824 2505
1694 1800 2591
1695 1786 2605
1695 1786 2605
1695 1786 2605
1695 1786 2605
1695 1786 2605
1684 2829 1204
1684 2835 1274
1684 2843 1361
1684 2851 1451
1684 2860 1545
1684 2868 1640
1684 2877 1737
1684 2886 1833
1684 2895 1928
1684 2903 2023
1684 2912 2116
1684 2920 2209
1684 2928 2301
1684 2936 2390
1684 2944 2479
1684 2952 2567
1684 2961 2659
1684 2969 2755
1684 2979 2855
1684 2875 2849
1684 2702 2775
1684 2526 2701
1684 2352 2628
1684 2181 2555
1684 2014 2485
1689 1989 2575
1694 1965 2660
1695 1951 2674
1695 1951 2674
1695 1951 2674
1695 1951 2674
1695 1951 2674
1689 3008 1314
1689 3015 1384
1689 3023 1470
1689 3031 1560
1689 3039 1654
1689 3048 1749
1689 3057 1845
1689 3065 1941
1689 3074 2036
1689 3082 2131
1689 3091 2224
1689 3099 2316
1689 3107 2408
1689 3116 2497
1689 3124 2585
1689 3132 2673
1689 3140 2766
1689 3149 2862
1689 3158 2961
1689 3167 3063
1689 3008 3005
1689 2830 2930
1689 2654 2856
1689 2481 2783
1689 2312 2711
1689 2150 2642
1694 2125 2728
1695 2111 2742
1695 2111 2742
1695 2111 2742
1695 2111 2742
1695 2111 2742
1694 3181 1419
1694 3188 1489
1694 3196 1575
1694 3204 1665
1694 3212 1760
1694 3221 1854
1694 3229 1949
1694 3238 2044
1694 3247 2140
1694 3255 2234
1694 3264 2328
1694 3272 2420
1694 3280 2511
1694 3288 2600
1694 3296 2688
1694 3304 2776
1694 3313 2868
1694 3321 2964
1694 3330 3064
1694 3340 3165
1694 3305 3226
1694 3125 3150
1694 2947 3075
1694 2772 3001
1694 2600 2929
1694 2437 2859
1694 2280 2793
1695 2266 2807
1695 2266 2807
1695 2266 2807
1695 2266 2807
1695 2266 2807
1695 3264 1469
1695 3270 1539
1695 3278 1625
1695 3286 1715
1695 3295 1809
1695 3303 1903
1695 3312 1998
1695 3320 2094
1695 3329 2189
1695 3338 2283
1695 3346 2377
1695 3354 2469
1695 3363 2560
1695 3371 2648
1695 3379 2737
1695 3387 2824
1695 3395 2917
1695 3404 3013
1695 3413 3112
1695 3422 3213
1695 3429 3299
1695 3263 3228
1695 3084 3153
1695 2909 3079
1695 2735 3006
1695 2571 2936
1695 2414 2870
1695 2340 2839
1695 2340 2839
1695 2340 2839
1695 2340 2839
1695 2340 2839
1695 3264 1469
1695 3270 1539
1695 3278 1625
1695 3286 1715
