Lut/lut.CUBE
#Created by: Adobe Photoshop Export Color Lookup Plugin
TITLE "lut.psd"
#LUT size
LUT_3D_SIZE 32
#data domain
DOMAIN_MIN 0.0 0.0 0.0
DOMAIN_MAX 1.0 1.0 1.0
#LUT data points
0.000000 0.000000 0.000000
0.007477 0.001312 0.000488
0.033905 0.004089 0.000824
0.060547 0.010773 0.001801
0.090820 0.022308 0.004303
0.121521 0.029907 0.006256
0.153839 0.037842 0.008698
0.187408 0.046204 0.011566
0.221771 0.054749 0.014801
0.257050 0.063629 0.018341
0.292572 0.072601 0.022278
0.328735 0.081543 0.025696
0.365540 0.090363 0.027893
0.402222 0.099121 0.030121
0.439117 0.107971 0.032440
0.476471 0.117004 0.034973
0.516541 0.126495 0.037231
0.558624 0.136475 0.039673
0.602844 0.147034 0.042358
0.649078 0.157928 0.044922
0.696442 0.169128 0.047668
0.745300 0.180634 0.050354
0.794434 0.192230 0.053070
0.843597 0.203766 0.055786
0.892456 0.215240 0.058411
0.939880 0.226349 0.060913
0.985687 0.237061 0.063385
0.999298 0.245422 0.070007
0.999298 0.245422 0.070007
0.999298 0.245422 0.070007
0.999298 0.245422 0.070007
0.999298 0.245422 0.070007
0.004791 0.007263 0.004578
0.006927 0.007507 0.001648
0.039764 0.022949 0.005890
0.065979 0.030060 0.007233
0.095154 0.037689 0.008636
0.125977 0.045715 0.010712
0.158447 0.054108 0.013306
0.192078 0.062775 0.016235
0.226532 0.071655 0.019562
0.261902 0.080750 0.023193
0.297516 0.089996 0.027222
0.333740 0.099182 0.030701
0.370575 0.108215 0.032928
0.407288 0.117157 0.035187
0.444244 0.126129 0.037567
0.481659 0.135345 0.040161
0.521790 0.145081 0.042480
0.563873 0.155121 0.044922
0.608185 0.165863 0.047699
0.654449 0.176941 0.050293
0.701843 0.188263 0.053070
0.750763 0.199982 0.055817
0.799927 0.211731 0.058563
0.849091 0.223328 0.061279
0.898071 0.235077 0.064026
0.945526 0.246277 0.066559
0.986267 0.259033 0.072388
0.999298 0.267639 0.079407
0.999298 0.267639 0.079407
0.999298 0.267639 0.079407
0.999298 0.267639 0.079407
0.999298 0.267639 0.079407
0.019440 0.029480 0.019226
0.019287 0.028717 0.004272
0.035736 0.031464 0.007019
0.071594 0.049957 0.012848
0.100861 0.057953 0.014343
0.131805 0.066284 0.016541
0.164337 0.075012 0.019196
0.198090 0.084045 0.022247
0.232635 0.093231 0.025665
0.268066 0.102570 0.029358
0.303741 0.112061 0.033447
0.340027 0.121460 0.036987
0.376923 0.130737 0.039276
0.413727 0.139923 0.041626
0.450745 0.149170 0.044067
0.488159 0.158447 0.046661
0.528351 0.168304 0.049042
0.570526 0.178650 0.051575
0.614868 0.189606 0.054382
0.661163 0.200775 0.057007
0.708618 0.212311 0.059845
0.757599 0.224182 0.062653
0.806824 0.236084 0.065460
0.856049 0.247864 0.068237
0.905029 0.259766 0.070984
0.952515 0.271027 0.073547
0.986267 0.286621 0.084015
0.999298 0.295410 0.091125
0.999298 0.295410 0.091125
0.999298 0.295410 0.091125
0.999298 0.295410 0.091125
0.999298 0.295410 0.091125
0.032867 0.049957 0.030029
0.031342 0.048401 0.006531
0.043030 0.050537 0.008759
0.061493 0.053619 0.011841
0.108154 0.080231 0.020142
0.138275 0.089264 0.023010
0.170898 0.098267 0.025757
0.204712 0.107513 0.028870
0.239319 0.116943 0.032349
0.274841 0.126617 0.036133
0.310547 0.136261 0.040253
0.346924 0.145874 0.043884
0.383881 0.155334 0.046234
0.420715 0.164673 0.048615
0.457794 0.174103 0.051117
0.495270 0.183655 0.053772
0.535492 0.193665 0.056183
0.577728 0.204163 0.058777
0.622101 0.215210 0.061615
0.668488 0.226715 0.064331
0.715973 0.238373 0.067200
0.765015 0.250427 0.070068
0.814240 0.262360 0.072876
0.863525 0.274384 0.075714
0.912537 0.286377 0.078491
0.959045 0.298279 0.081787
0.986267 0.316559 0.096680
0.999298 0.325348 0.103760
0.999298 0.325348 0.103760
0.999298 0.325348 0.103760
0.999298 0.325348 0.103760
0.999298 0.325348 0.103760
0.047607 0.072510 0.041016
0.046051 0.070953 0.018188
0.051178 0.071594 0.010651
0.071442 0.074982 0.014038
0.089935 0.078064 0.017120
0.140808 0.107544 0.026855
0.178009 0.123383 0.032867
0.211884 0.132843 0.036041
0.246552 0.142578 0.039581
0.282135 0.152435 0.043427
0.317902 0.162323 0.047607
0.354309 0.172089 0.051270
0.391327 0.181732 0.053680
0.428223 0.191254 0.056122
0.465363 0.200867 0.058685
0.502899 0.210571 0.061401
0.543152 0.220764 0.063843
0.585419 0.231354 0.066467
0.629852 0.242615 0.069366
0.676300 0.254272 0.072144
0.723816 0.266144 0.075043
0.772888 0.278351 0.077942
0.822174 0.290497 0.080811
0.871490 0.302643 0.083679
0.920502 0.314575 0.086456
0.959045 0.329681 0.095062
0.986267 0.348358 0.110107
0.999298 0.357117 0.117188
0.999298 0.357117 0.117188
0.999298 0.357117 0.117188
0.999298 0.357117 0.117188
0.999298 0.357117 0.117188
0.063232 0.096375 0.051971
0.061829 0.095001 0.031769
0.062042 0.094360 0.013672
0.081970 0.097748 0.017059
0.100159 0.100769 0.020081
0.120026 0.104065 0.023407
0.173492 0.135193 0.034119
0.219360 0.159332 0.043518
0.254059 0.169189 0.047089
0.289673 0.179199 0.050964
0.325531 0.189270 0.055237
0.361969 0.199249 0.058929
0.399017 0.209045 0.061371
0.435974 0.218781 0.063873
0.473145 0.228516 0.066467
0.510712 0.238342 0.069214
0.551025 0.248627 0.071716
0.593353 0.259521 0.074402
0.637787 0.270813 0.077301
0.684296 0.282654 0.080139
0.731842 0.294586 0.083069
0.780975 0.307007 0.086029
0.830322 0.319305 0.088959
0.879669 0.331573 0.091858
0.928711 0.343658 0.094666
0.959045 0.362122 0.108765
0.986267 0.380737 0.123779
0.999298 0.389740 0.130981
0.999298 0.389740 0.130981
0.999298 0.389740 0.130981
0.999298 0.389740 0.130981
0.999298 0.389740 0.130981
0.079620 0.121429 0.063110
0.078278 0.120087 0.043488
0.076782 0.118408 0.017029
0.093018 0.121765 0.020691
0.111115 0.124786 0.023712
0.130615 0.128021 0.026947
0.151611 0.131531 0.030457
0.206848 0.163727 0.041809
0.263550 0.196228 0.053802
0.297546 0.207092 0.058838
0.333466 0.217346 0.063171
0.369934 0.227478 0.066895
0.407043 0.237457 0.069397
0.444061 0.247345 0.071960
0.481232 0.257141 0.074554
0.518829 0.267059 0.077332
0.559204 0.277618 0.079895
0.601563 0.288544 0.082611
0.646057 0.300079 0.085571
0.692566 0.311920 0.088409
0.740204 0.324158 0.091431
0.789337 0.336639 0.094391
0.838715 0.349121 0.097351
0.888092 0.361389 0.100281
0.930878 0.376312 0.107391
0.959045 0.395569 0.122894
0.986267 0.414368 0.137970
0.999298 0.423157 0.145081
0.999298 0.423157 0.145081
0.999298 0.423157 0.145081
0.999298 0.423157 0.145081
0.999298 0.423157 0.145081
0.096497 0.147308 0.074188
0.095184 0.145966 0.054962
0.093445 0.144257 0.029480
0.103668 0.146515 0.024628
0.122406 0.149658 0.027740
0.141693 0.152863 0.030945
0.162476 0.156342 0.034424
0.184265 0.159943 0.038055
0.240845 0.193024 0.050018
0.299835 0.227081 0.062714
0.341553 0.246033 0.071259
0.378113 0.256378 0.075073
0.415253 0.266449 0.077606
0.452240 0.276367 0.080139
0.489471 0.286377 0.082794
0.527130 0.296417 0.085632
0.567535 0.307129 0.088226
0.609955 0.318237 0.091003
0.654480 0.329895 0.093994
0.701019 0.341888 0.096863
0.748688 0.354218 0.099915
0.797852 0.366821 0.102905
0.847229 0.379303 0.105865
0.896698 0.391907 0.108887
0.930878 0.410126 0.121674
0.959045 0.429535 0.137238
0.986267 0.448334 0.152313
0.999298 0.457397 0.159546
0.999298 0.457397 0.159546
0.999298 0.457397 0.159546
0.999298 0.457397 0.159546
0.999298 0.457397 0.159546
0.113800 0.173767 0.085175
0.112518 0.172455 0.066284
0.110840 0.170807 0.041779
0.113831 0.171539 0.028412
0.134216 0.175232 0.032257
0.153137 0.178375 0.035400
0.173645 0.181793 0.038818
0.195282 0.185394 0.042419
0.217743 0.189148 0.046173
0.275696 0.223053 0.058685
0.334930 0.257416 0.071838
0.386597 0.285583 0.083191
0.423553 0.295898 0.085907
0.460602 0.305969 0.088501
0.497864 0.316101 0.091187
0.535553 0.326233 0.094055
0.575958 0.337006 0.096649
0.618408 0.348267 0.099457
0.662994 0.360016 0.102509
0.709564 0.372192 0.105408
0.757233 0.384491 0.108459
0.806458 0.397278 0.111511
0.855896 0.409973 0.114532
0.901825 0.423950 0.119873
0.930878 0.444336 0.136108
0.959045 0.463867 0.151733
0.986267 0.482849 0.166901
0.999298 0.491974 0.174133
0.999298 0.491974 0.174133
0.999298 0.491974 0.174133
0.999298 0.491974 0.174133
0.999298 0.491974 0.174133
0.131500 0.200867 0.096191
0.130219 0.199585 0.077515
0.128571 0.197968 0.053650
0.128235 0.196960 0.031799
0.146301 0.201508 0.037109
0.164948 0.204590 0.040222
0.185211 0.207977 0.043610
0.206665 0.211548 0.047180
0.228943 0.215271 0.050903
0.252014 0.219116 0.054749
0.310333 0.253296 0.067749
0.370361 0.287964 0.080444
0.431793 0.322693 0.092133
0.469086 0.335999 0.096985
0.506378 0.346252 0.099701
0.544098 0.356567 0.102600
0.584564 0.367401 0.105255
0.627045 0.378815 0.108093
0.671631 0.390625 0.111145
0.718231 0.402893 0.114075
0.765930 0.415375 0.117157
0.815216 0.428253 0.120270
0.864716 0.441162 0.123352
0.901825 0.458710 0.134552
0.930878 0.479034 0.150757
0.959045 0.498779 0.166504
0.986267 0.517731 0.181641
0.999298 0.526886 0.188873
0.999298 0.526886 0.188873
0.999298 0.526886 0.188873
0.999298 0.526886 0.188873
0.999298 0.526886 0.188873
0.149292 0.228119 0.107056
0.148041 0.226868 0.088654
0.146454 0.225281 0.065216
0.144623 0.223450 0.038422
0.158478 0.227997 0.042419
0.176880 0.231079 0.045502
0.196930 0.234406 0.048828
0.218109 0.237946 0.052368
0.240234 0.241638 0.056061
0.263153 0.245453 0.059875
0.286438 0.249329 0.063751
0.345673 0.283844 0.076355
0.406311 0.318451 0.087860
0.467438 0.353088 0.099548
0.514923 0.376495 0.108246
0.552643 0.386841 0.111145
0.593170 0.397888 0.113861
0.635651 0.409271 0.116699
0.680267 0.421204 0.119781
0.726929 0.433685 0.122772
0.774689 0.446320 0.125916
0.823944 0.459229 0.128998
0.872620 0.472412 0.132599
0.901825 0.493164 0.149109
0.930878 0.513641 0.165375
0.959045 0.533600 0.181183
0.986267 0.552734 0.196411
0.999298 0.561859 0.203674
0.999298 0.561859 0.203674
0.999298 0.561859 0.203674
0.999298 0.561859 0.203674
0.999298 0.561859 0.203674
0.167267 0.255676 0.117798
0.166016 0.254425 0.099609
0.164459 0.252838 0.076569
0.162659 0.251068 0.050537
0.171539 0.254669 0.047119
0.189270 0.257782 0.050293
0.209015 0.261078 0.053558
0.230011 0.264557 0.057068
0.251892 0.268219 0.060730
0.274658 0.272003 0.064514
0.297821 0.275879 0.068359
0.321503 0.279816 0.072327
0.381439 0.314301 0.083710
0.441803 0.348816 0.095276
0.503113 0.383575 0.107086
0.562683 0.416779 0.118805
0.601776 0.428467 0.122467
0.644318 0.439972 0.125366
0.688965 0.452087 0.128479
0.735657 0.464539 0.131500
0.783417 0.477234 0.134644
0.832733 0.490326 0.137787
0.872620 0.507019 0.147247
0.901825 0.527924 0.163788
0.930878 0.548584 0.180145
0.959045 0.568420 0.195892
0.986267 0.587677 0.211182
0.999298 0.596832 0.218414
0.999298 0.596832 0.218414
0.999298 0.596832 0.218414
0.999298 0.596832 0.218414
0.999298 0.596832 0.218414
0.185303 0.283356 0.128479
0.184082 0.282104 0.110474
0.182526 0.280579 0.087677
0.180786 0.278809 0.062225
0.184418 0.279816 0.048401
0.202057 0.284424 0.053833
0.221588 0.287659 0.057098
0.242340 0.291138 0.060547
0.264069 0.294739 0.064178
0.286652 0.298523 0.067932
0.309723 0.302368 0.071777
0.333191 0.306274 0.075684
0.357086 0.310242 0.079681
0.416779 0.344635 0.091095
0.477478 0.379303 0.102814
0.539337 0.414520 0.114929
0.606262 0.452179 0.127533
0.652985 0.470673 0.134033
0.697662 0.482910 0.137177
0.744385 0.495514 0.140228
0.792175 0.508240 0.143402
0.841522 0.521484 0.146576
0.872620 0.541748 0.161896
0.901825 0.562592 0.178436
0.930878 0.583344 0.194824
0.959045 0.603333 0.210632
0.986267 0.622528 0.225891
0.999298 0.631897 0.233246
0.999298 0.631897 0.233246
0.999298 0.631897 0.233246
0.999298 0.631897 0.233246
0.999298 0.631897 0.233246
0.203400 0.310974 0.138977
0.202209 0.309753 0.121155
0.200653 0.308228 0.098602
0.198975 0.306519 0.073700
0.198700 0.305511 0.050598
0.214996 0.311005 0.057495
0.234222 0.314209 0.060699
0.254669 0.317627 0.064087
0.276245 0.321228 0.067688
0.298676 0.324951 0.071442
0.321594 0.328766 0.075256
0.345001 0.332672 0.079163
0.368774 0.336639 0.083099
0.392548 0.340607 0.087067
0.452606 0.375153 0.098663
0.513916 0.410278 0.110687
0.580231 0.447845 0.123199
0.650330 0.487305 0.136475
0.706329 0.513550 0.145844
0.753052 0.526184 0.148895
0.800842 0.539032 0.152069
0.843445 0.554901 0.159760
0.872620 0.575989 0.176361
0.901825 0.596893 0.192902
0.930878 0.617767 0.209381
0.959045 0.637787 0.225189
0.986267 0.657379 0.240601
0.999298 0.666534 0.247864
0.999298 0.666534 0.247864
0.999298 0.666534 0.247864
0.999298 0.666534 0.247864
0.999298 0.666534 0.247864
0.221649 0.338745 0.149475
0.220428 0.337555 0.131775
0.218903 0.336029 0.109406
0.217255 0.334351 0.084839
0.215363 0.332458 0.057373
0.228088 0.337738 0.061249
0.246918 0.340881 0.064392
0.267242 0.344269 0.067780
0.288574 0.347839 0.071350
0.310822 0.351532 0.075043
0.333588 0.355316 0.078827
0.356903 0.359222 0.082733
0.380493 0.363159 0.086670
0.404175 0.367096 0.090607
0.428223 0.371094 0.094604
0.488892 0.406097 0.106506
0.554688 0.443573 0.118927
0.624146 0.482941 0.132141
0.697693 0.524384 0.146179
0.761719 0.556915 0.157562
0.809540 0.569794 0.160767
0.843445 0.589111 0.174194
0.872620 0.610352 0.190887
0.901825 0.631500 0.207520
0.930878 0.652466 0.223999
0.959045 0.672546 0.239868
0.986267 0.692017 0.255219
0.999298 0.701324 0.262543
0.999298 0.701324 0.262543
0.999298 0.701324 0.262543
0.999298 0.701324 0.262543
0.999298 0.701324 0.262543
0.240143 0.366852 0.159943
0.238953 0.365662 0.142365
0.237457 0.364166 0.120270
0.235779 0.362488 0.095978
0.233978 0.360687 0.069244
0.242920 0.364258 0.064240
0.259918 0.367950 0.068359
0.279907 0.371277 0.071686
0.301056 0.374786 0.075195
0.323212 0.378479 0.078888
0.345795 0.382233 0.082642
0.368927 0.386108 0.086517
0.392548 0.390045 0.090454
0.416107 0.393951 0.094360
0.440063 0.397949 0.098358
0.464294 0.402008 0.102417
0.529327 0.439362 0.114716
0.598267 0.478638 0.127808
0.671265 0.519989 0.141785
0.748077 0.563171 0.156250
0.814392 0.602448 0.172150
0.843445 0.623566 0.188751
0.872620 0.644836 0.205414
0.901825 0.666077 0.222107
0.930878 0.687103 0.238647
0.959045 0.707275 0.254517
0.986267 0.726837 0.269928
0.999298 0.736176 0.277252
0.999298 0.736176 0.277252
0.999298 0.736176 0.277252
0.999298 0.736176 0.277252
0.999298 0.736176 0.277252
0.259979 0.396942 0.171051
0.258789 0.395752 0.153564
0.257294 0.394257 0.131714
0.255646 0.392609 0.107758
0.253845 0.390808 0.081482
0.257874 0.391907 0.066162
0.274017 0.396790 0.072144
0.293762 0.400085 0.075439
0.314636 0.403564 0.078918
0.336578 0.407227 0.082581
0.359100 0.410980 0.086334
0.382080 0.414825 0.090179
0.405457 0.418701 0.094055
0.428986 0.422638 0.097992
0.452759 0.426605 0.101959
0.477020 0.430634 0.105988
0.502991 0.434967 0.110321
0.571198 0.474121 0.123291
0.643585 0.515381 0.137177
0.719910 0.558502 0.151550
0.795044 0.604004 0.168640
0.843445 0.660492 0.204346
0.872620 0.681763 0.221039
0.901825 0.702972 0.237732
0.930878 0.724182 0.254303
0.959045 0.744537 0.270264
0.986267 0.764038 0.285645
0.999298 0.773376 0.292969
0.999298 0.773376 0.292969
0.999298 0.773376 0.292969
0.999298 0.773376 0.292969
0.999298 0.773376 0.292969
0.280762 0.428436 0.182587
0.279572 0.427246 0.165314
0.278107 0.425781 0.143585
0.276459 0.424133 0.119843
0.274719 0.422394 0.094086
0.273682 0.420959 0.068359
0.288879 0.427063 0.076233
0.308289 0.430298 0.079468
0.328979 0.433746 0.082947
0.350739 0.437378 0.086548
0.372986 0.441071 0.090271
0.395844 0.444885 0.094086
0.419098 0.448761 0.097961
0.442474 0.452667 0.101837
0.466187 0.456604 0.105804
0.490295 0.460632 0.109802
0.516266 0.464966 0.114136
0.543518 0.469513 0.118683
0.615295 0.510651 0.132446
0.690857 0.553650 0.146698
0.768829 0.597778 0.161499
0.819336 0.655090 0.196869
0.868713 0.713318 0.233521
0.901825 0.741577 0.253998
0.930878 0.762787 0.270599
0.959045 0.783386 0.286682
0.986267 0.802917 0.302063
0.999298 0.812286 0.309418
0.999298 0.812286 0.309418
0.999298 0.812286 0.309418
0.999298 0.812286 0.309418
0.999298 0.812286 0.309418
0.302612 0.461517 0.194611
0.301453 0.460358 0.177399
0.299957 0.458862 0.155792
0.298370 0.457275 0.132355
0.296631 0.455536 0.106964
0.294769 0.453674 0.079865
0.305939 0.458374 0.079803
0.323700 0.462067 0.083862
0.344055 0.465454 0.087250
0.365540 0.469025 0.090820
0.387634 0.472717 0.094513
0.410370 0.476501 0.098297
0.433502 0.480377 0.102142
0.456818 0.484253 0.106049
0.480347 0.488159 0.109955
0.504395 0.492188 0.113983
0.530212 0.496490 0.118256
0.557373 0.501007 0.122803
0.586151 0.505798 0.127594
0.661041 0.548676 0.141724
0.738403 0.592682 0.156403
0.793365 0.647919 0.188263
0.842438 0.706024 0.224792
0.891937 0.764282 0.261475
0.930878 0.803406 0.287750
0.959045 0.823822 0.303741
0.986267 0.843658 0.319275
0.999298 0.853149 0.326660
0.999298 0.853149 0.326660
0.999298 0.853149 0.326660
0.999298 0.853149 0.326660
0.999298 0.853149 0.326660
0.325470 0.496033 0.207031
0.324280 0.494873 0.189941
0.322845 0.493408 0.168579
0.321228 0.491821 0.145233
0.319519 0.490112 0.120178
0.317719 0.488281 0.093689
0.324463 0.490692 0.082825
0.339874 0.495148 0.088196
0.360016 0.498505 0.091553
0.381195 0.502045 0.095093
0.403168 0.505707 0.098755
0.425659 0.509460 0.102509
0.448700 0.513306 0.106354
0.471802 0.517151 0.110199
0.495300 0.521057 0.114105
0.519104 0.525024 0.118073
0.544800 0.529297 0.122375
0.571991 0.533844 0.126892
0.600616 0.538605 0.131653
0.630615 0.543610 0.136658
0.707336 0.587524 0.151245
0.766968 0.640594 0.179535
0.815582 0.698578 0.215881
0.864594 0.756714 0.252380
0.913727 0.814545 0.288757
0.959045 0.865997 0.321564
0.986267 0.885956 0.337128
0.999298 0.895264 0.344452
0.999298 0.895264 0.344452
0.999298 0.895264 0.344452
0.999298 0.895264 0.344452
0.999298 0.895264 0.344452
0.348907 0.531372 0.219635
0.347748 0.530212 0.202667
0.346283 0.528748 0.181427
0.344727 0.527191 0.158295
0.343018 0.525482 0.133484
0.341248 0.523712 0.107544
0.342438 0.523346 0.085419
0.356567 0.529053 0.092773
0.376251 0.532349 0.096069
0.397278 0.535828 0.099579
0.419037 0.539459 0.103180
0.441345 0.543182 0.106903
0.464172 0.546997 0.110718
0.487213 0.550842 0.114563
0.510498 0.554718 0.118439
0.534363 0.558685 0.122406
0.559937 0.562958 0.126678
0.586945 0.567444 0.131195
0.615509 0.572205 0.135956
0.645355 0.577179 0.140900
0.676147 0.582336 0.146057
0.740509 0.633270 0.170746
0.788605 0.691101 0.206940
0.837067 0.749084 0.243256
0.885895 0.806793 0.279510
0.933380 0.862793 0.314697
0.979523 0.916901 0.348755
0.999298 0.938629 0.362762
0.999298 0.938629 0.362762
0.999298 0.938629 0.362762
0.999298 0.938629 0.362762
0.999298 0.938629 0.362762
0.373108 0.567810 0.232544
0.371948 0.566650 0.215637
0.370514 0.565216 0.194550
0.368958 0.563660 0.171661
0.367279 0.561981 0.147095
0.365509 0.560211 0.121460
0.363647 0.558350 0.093994
0.375458 0.563416 0.096436
0.393341 0.567230 0.100647
0.414032 0.570679 0.104126
0.435516 0.574249 0.107697
0.457703 0.577942 0.111389
0.480438 0.581757 0.115173
0.503235 0.585541 0.118988
0.526428 0.589417 0.122833
0.550049 0.593353 0.126770
0.575623 0.597595 0.131042
0.602448 0.602081 0.135498
0.631012 0.606842 0.140259
0.660797 0.611816 0.145233
0.687256 0.618530 0.153076
0.713745 0.625854 0.161865
0.761261 0.683533 0.197876
0.809265 0.741364 0.234039
0.857513 0.798950 0.270111
0.904724 0.854828 0.305176
0.950562 0.908875 0.339142
0.972412 0.934662 0.355316
0.972412 0.934662 0.355316
0.972412 0.934662 0.355316
0.972412 0.934662 0.355316
0.972412 0.934662 0.355316
0.397430 0.604370 0.245392
0.396271 0.603210 0.228577
0.394836 0.601776 0.207611
0.393280 0.600220 0.184937
0.391632 0.598572 0.160614
0.389893 0.596832 0.135284
0.388062 0.594971 0.108337
0.395203 0.597656 0.099701
0.410492 0.602234 0.105286
0.430969 0.605621 0.108673
0.452118 0.609161 0.112213
0.474152 0.612823 0.115875
0.496735 0.616577 0.119659
0.519409 0.620361 0.123444
0.542450 0.624207 0.127258
0.564087 0.628876 0.132477
0.585236 0.634735 0.139465
0.607605 0.640930 0.146881
0.631256 0.647491 0.154724
0.655945 0.654327 0.162933
0.681396 0.661377 0.171387
0.707764 0.668701 0.180115
0.734375 0.676086 0.188965
0.781891 0.733765 0.224945
0.829712 0.791260 0.260895
0.876404 0.847015 0.295807
0.921814 0.900909 0.329620
0.943604 0.926666 0.345764
0.943604 0.926666 0.345764
0.943604 0.926666 0.345764
0.943604 0.926666 0.345764
0.943604 0.926666 0.345764
0.409882 0.645599 0.266113
0.409882 0.644012 0.248688
0.409882 0.642029 0.226898
0.409882 0.639923 0.203369
0.409882 0.637634 0.178101
0.409882 0.635284 0.151978
0.409882 0.632782 0.124390
0.414764 0.632050 0.103180
0.427795 0.637268 0.109894
0.447083 0.640991 0.113892
0.464569 0.645874 0.119690
0.482727 0.650879 0.125702
0.501312 0.656036 0.131897
0.520081 0.661224 0.138092
0.539276 0.666565 0.144470
0.558777 0.671967 0.150940
0.579773 0.677765 0.157898
0.602020 0.683960 0.165283
0.625580 0.690491 0.173096
0.650269 0.697327 0.181305
0.675690 0.704346 0.189728
0.701996 0.711639 0.198456
0.728485 0.718994 0.207245
0.755035 0.726349 0.216064
0.802307 0.783630 0.251801
0.848633 0.839325 0.286591
0.893616 0.893097 0.320251
0.915344 0.918854 0.336395
0.915344 0.918854 0.336395
0.915344 0.918854 0.336395
0.915344 0.918854 0.336395
0.915344 0.918854 0.336395
0.411163 0.690826 0.293915
0.411163 0.689240 0.276459
0.411163 0.687286 0.254791
0.411163 0.685150 0.231384
0.411163 0.682892 0.206512
0.411163 0.680573 0.180634
0.411163 0.678101 0.153229
0.411163 0.675476 0.124512
0.426208 0.679413 0.127014
0.442688 0.683990 0.132477
0.459930 0.688782 0.138214
0.477997 0.693787 0.144226
0.496429 0.698883 0.150330
0.515045 0.704041 0.156494
0.534149 0.709351 0.162842
0.553497 0.714722 0.169281
0.574463 0.720520 0.176208
0.596588 0.726654 0.183563
0.620117 0.733154 0.191345
0.644592 0.739929 0.199493
0.669891 0.746948 0.207886
0.696198 0.754242 0.216614
0.722595 0.761566 0.225372
0.749146 0.768921 0.234161
0.775604 0.776245 0.242950
0.821442 0.831757 0.277557
0.866119 0.885468 0.311127
0.887451 0.911102 0.327118
0.887451 0.911102 0.327118
0.887451 0.911102 0.327118
0.887451 0.911102 0.327118
0.887451 0.911102 0.327118
0.412506 0.734650 0.320801
0.412506 0.733093 0.303345
0.412506 0.731140 0.281921
0.412506 0.729034 0.258606
0.412506 0.726776 0.233887
0.412506 0.724457 0.208191
0.412506 0.722046 0.181274
0.412506 0.719482 0.153046
0.422363 0.721191 0.145172
0.438568 0.725677 0.150543
0.455627 0.730408 0.156189
0.473389 0.735321 0.162109
0.491669 0.740387 0.168182
0.510193 0.745514 0.174316
0.529175 0.750763 0.180603
0.548431 0.756104 0.186981
0.569336 0.761902 0.193939
0.591461 0.768036 0.201294
0.614716 0.774506 0.208984
0.639191 0.781250 0.217102
0.664459 0.788269 0.225464
0.690613 0.795502 0.234161
0.716980 0.802826 0.242920
0.743408 0.810150 0.251678
0.769836 0.817474 0.260437
0.795502 0.824585 0.268951
0.839813 0.878174 0.302399
0.861084 0.903809 0.318390
0.861084 0.903809 0.318390
0.861084 0.903809 0.318390
0.861084 0.903809 0.318390
0.861084 0.903809 0.318390
0.413757 0.776917 0.346619
0.413757 0.775360 0.329346
0.413757 0.773438 0.307922
0.413757 0.771332 0.284760
0.413757 0.769073 0.259979
0.413757 0.766785 0.234619
0.413757 0.764343 0.207886
0.413757 0.761841 0.180206
0.418793 0.761505 0.162720
0.434631 0.765900 0.167969
0.451508 0.770569 0.173584
0.469147 0.775452 0.179443
0.487213 0.780457 0.185425
0.505737 0.785583 0.191589
0.524475 0.790802 0.197815
0.543671 0.796112 0.204163
0.564423 0.801849 0.211060
0.586426 0.807953 0.218353
0.609711 0.814423 0.226074
0.634155 0.821198 0.234192
0.659241 0.828125 0.242493
0.685242 0.835327 0.251129
0.711639 0.842651 0.259857
0.738037 0.849976 0.268646
0.764313 0.857269 0.277374
0.789948 0.864349 0.285858
0.814758 0.871246 0.294098
0.835876 0.896820 0.310028
0.835876 0.896820 0.310028
0.835876 0.896820 0.310028
0.835876 0.896820 0.310028
0.835876 0.896820 0.310028
0.414001 0.797028 0.358795
0.414001 0.795471 0.341614
0.414001 0.793518 0.320129
0.414001 0.791443 0.297058
0.414001 0.789215 0.272461
0.414001 0.786896 0.246979
0.414001 0.784515 0.220612
0.414001 0.782013 0.192932
0.416962 0.780762 0.171082
0.432800 0.785126 0.176300
0.449554 0.789795 0.181885
0.467072 0.794647 0.187683
0.485199 0.799652 0.193695
0.503510 0.804718 0.199768
0.522278 0.809937 0.205994
0.541412 0.815216 0.212341
0.562103 0.820953 0.219208
0.584045 0.827026 0.226471
